!!!OTL: Verschlafener Jaeger
!!!OTL-incipit:Es wollt ein Jaeger jagen
!!!ARE: Europa, Mitteleuropa, Deutschland (BRD), Hessen, Marburg, Fronhausen
!!!YOR: 7, S. 185
!!    ????
!!!SCT: Q0152A
!!!TXL: @@DE
!!!YEM: Copyright 1995, estate of Helmut Schaffrath.
**kern	**text
*ICvox	*
*M6/8	*
*k[b-e-]	*
*B-:	*
{8f	1._Es
=1	=1
4f	wollt
8f	ein
(8fL	Jä-
8g)	.
8aJ	-ger
=2	=2
4.b-	ja-
4g}	-gen
{8g	drei
=3	=3
4g	Vier-
8g	-tel-
(8b-L	-stund
8a)	.
8gJ	vor
=4	=4
(4f	Ta-
8b-)	.
4d}	-gen
{8f	ein
=5	=5
4f	Hirsch-
8e-	-lein
8.cL	o-
16a	-der
8aJ	ein
=6	=6
4b-	Reh,
8dd	ja,
4dd}	ja,
{8dd	ein
=7	=7
4cc	Hirsch-
8cc	-lein
8.ee-L	o-
16dd	-der
8ccJ	ein
=8	=8
2b-	Reh.
8r}	.
{8b-	Hal-
=9	=9
4b-	-li
8b-	hal-
4dd	-lo
8dd	hal-
=10	=10
4ff	-li
8ff	hal-
4dd}	-lo
{8dd	bei
=11	=11
4cc	uns
8cc	geht's
8ee-L	immer
8dd	.
8ccJ	je
=12	=12
8b-L	län-
8dd	-ger
8ccJ	je
8b-L	schlimmer,
8aJ}	.
{8g	hal-
=13	=13
4f	-li
8b-	hal-
4b-	-lo
8dd	hal-
=14	=14
4ff	-li
8ff	hal-
4dd}	-lo
{8dd	bei
=15	=15
4cc	uns
8cc	gent's
(8ee-L	im-
8dd)	.
8ccJ	-mer
=16	=16
2.b-}	so.
==	==
!!!AGN: Ballade, Verfuehrung, Versagen, Spott; Trink - Lied ?
!! Letzten Notenwert rhythmisch korrigiert. Fuenfte bis letzte Zeile
!!    = Refrain, z.T. auf sinnfreie Silben.
!!!ONB: ESAC (Essen Associative Code) Database: BALLADE
!!!AMT: compound duple
!!!AIN: vox
!!!EED: Helmut Schaffrath
!!!EEV: 1.0
!!@@COMMENT:"A 43 950. Baumbach, Fronhausen/ Marburg, o.J."
!!@@END:
!!!source: Deutsche Volkslieder mit ihren Melodien Balladen. Herausgegeben vom Deutschen Volksliedarchiv. Siebenterer Band. Freiburg/Breisgau 1982.
!!!page: 185
!!!ENC: Anna Maria Matuszewska
!!!EEV: 2025/03/07
*-	*-
